; generated by PrusaSlicer 2.9.4 on 2026-05-31 at 14:54:44 UTC


;
;
; 

; external perimeters extrusion width = 0.45mm
; perimeters extrusion width = 0.45mm
; infill extrusion width = 0.45mm
; solid infill extrusion width = 0.45mm
; top infill extrusion width = 0.40mm
; support material extrusion width = 0.35mm
; first layer extrusion width = 0.42mm

; external perimeters extrusion width = 0.45mm
; perimeters extrusion width = 0.45mm
; infill extrusion width = 0.45mm
; solid infill extrusion width = 0.45mm
; top infill extrusion width = 0.40mm
; support material extrusion width = 0.35mm
; first layer extrusion width = 0.42mm

; external perimeters extrusion width = 0.45mm
; perimeters extrusion width = 0.45mm
; infill extrusion width = 0.45mm
; solid infill extrusion width = 0.45mm
; top infill extrusion width = 0.40mm
; support material extrusion width = 0.35mm
; first layer extrusion width = 0.42mm

; external perimeters extrusion width = 0.45mm
; perimeters extrusion width = 0.45mm
; infill extrusion width = 0.45mm
; solid infill extrusion width = 0.45mm
; top infill extrusion width = 0.40mm
; support material extrusion width = 0.35mm
; first layer extrusion width = 0.42mm

; external perimeters extrusion width = 0.45mm
; perimeters extrusion width = 0.45mm
; infill extrusion width = 0.45mm
; solid infill extrusion width = 0.45mm
; top infill extrusion width = 0.40mm
; support material extrusion width = 0.35mm
; first layer extrusion width = 0.42mm

; external perimeters extrusion width = 0.45mm
; perimeters extrusion width = 0.45mm
; infill extrusion width = 0.45mm
; solid infill extrusion width = 0.45mm
; top infill extrusion width = 0.40mm
; support material extrusion width = 0.35mm
; first layer extrusion width = 0.42mm

M73 P0 R95
M73 Q0 S97
M201 X1000 Y1000 Z200 E5000 ; sets maximum accelerations, mm/sec^2
M203 X200 Y200 Z12 E120 ; sets maximum feedrates, mm / sec
M204 S1250 T1250 ; sets acceleration (S) and retract acceleration (R), mm/sec^2
M205 X8.00 Y8.00 Z0.40 E4.50 ; sets the jerk limits, mm/sec
M205 S0 T0 ; sets the minimum extruding and travel feed rate, mm/sec

; printing object Hands.stl id:5 copy 0
; stop printing object Hands.stl id:5 copy 0
; printing object Arms.stl id:4 copy 0
; stop printing object Arms.stl id:4 copy 0
; printing object Legs.stl id:3 copy 0
; stop printing object Legs.stl id:3 copy 0
; printing object Head.stl id:1 copy 0
; stop printing object Head.stl id:1 copy 0
; printing object Hips.stl id:2 copy 0
; stop printing object Hips.stl id:2 copy 0
; printing object Torso.stl id:0 copy 0
; stop printing object Torso.stl id:0 copy 0

;TYPE:Custom
M862.3 P "MK3S" ; printer model check
M862.1 P0.4 ; nozzle diameter check
M115 U3.14.1 ; tell printer latest fw version
G90 ; use absolute coordinates
M83 ; extruder relative mode
M104 S240 ; set extruder temp
M140 S85 ; set bed temp
M190 S85 ; wait for bed temp
M109 S240 ; wait for extruder temp
G28 W ; home all without mesh bed level
G80 X54.9495 Y43.0758 W82.562 H116.444 ; mesh bed levelling

G1 Z0.2 F720
G1 Y-3 F1000 ; go outside print area
G92 E0
G1 X60 E9 F1000 ; intro line
G1 X100 E12.5 F1000 ; intro line

G92 E0
M221 S95

; Don't change E values below. Excessive value can damage the printer.
M907 E430 ; set extruder motor current
G21 ; set units to millimeters
G90 ; use absolute coordinates
M83 ; use relative distances for extrusion

M900 K0.08 ; Filament gcode LA 1.5
M900 K45 ; Filament gcode LA 1.0




M107
;LAYER_CHANGE
;Z:0.2
;HEIGHT:0.2
G1 E-1 F2100
G1 Z.4 F720
G1 X55.819 Y46.894 F10800
G1 Z.2 F720
G1 E1 F2100
M204 S800
;TYPE:Skirt/Brim
;WIDTH:0.42
G1 F1200
G1 X58.807 Y43.906 E.13249
G1 X60.355 Y43.264 E.05255
G1 X77.226 Y43.264 E.52898
G1 X132.165 Y43.709 E1.72263
G1 X133.694 Y44.35 E.05198
G1 X136.682 Y47.337 E.13247
G1 X137.323 Y48.885 E.05253
G1 X137.322 Y61.671 E.4009
G1 X134.246 Y155.307 E2.93747
G1 X133.793 Y156.57 E.04207
G1 X133.604 Y156.815 E.0097
G1 X131.939 Y157.668 E.05866
G1 X79.553 Y159.33 E1.64335
G1 X59.448 Y159.331 E.63038
G1 X57.9 Y158.69 E.05253
G1 X57.202 Y157.513 E.04291
G1 X55.192 Y148.592 E.28672
G1 X55.138 Y148.111 E.01518
G1 X55.178 Y48.44 E3.12511
G1 X55.796 Y46.949 E.05061
M204 S1000
;WIPE_START
G1 F8640
G1 X55.819 Y46.894 E-.01377
G1 X58.807 Y43.906 E-.97572
G1 X58.849 Y43.889 E-.01051
;WIPE_END
G1 Z.4 F720
G1 X107.812 Y50.546 F10800
G1 Z.2 F720
G1 E1 F2100
M204 S800
G1 F1200
G1 X108.045 Y49.452 E.03507
G1 X108.544 Y48.399 E.03654
G1 X109.959 Y46.964 E.06319
G1 X110.839 Y46.516 E.03096
G1 X111.964 Y46.215 E.03651
G1 X119.751 Y46.21 E.24416
G1 X121.359 Y46.701 E.05272
M73 P0 R94
G1 X121.636 Y46.56 E.00975
G1 X122.967 Y46.202 E.04322
G1 X130.665 Y46.211 E.24137
G1 X132.273 Y46.721 E.05289
G1 X133.217 Y47.376 E.03603
G1 X133.891 Y48.099 E.03099
G1 X134.414 Y48.971 E.03188
G1 X134.848 Y50.569 E.05192
G1 X134.837 Y59.94 E.29382
G1 X134.631 Y60.961 E.03266
G1 X134.212 Y61.924 E.03293
G1 X132.834 Y63.416 E.06368
G1 X131.782 Y63.98 E.03743
G1 X130.453 Y64.3 E.04286
G1 X123.074 Y64.3 E.23136
G1 X121.293 Y63.783 E.05815
G1 X120.975 Y63.94 E.01112
G1 X119.608 Y64.293 E.04427
G1 X112.159 Y64.301 E.23356
G1 X110.104 Y63.618 E.0679
G1 X109.319 Y63.001 E.03131
G1 X108.658 Y62.25 E.03137
G1 X108.14 Y61.275 E.03462
G1 X107.803 Y59.906 E.04421
G1 X107.812 Y50.606 E.2916
M204 S1000
G1 X108.189 Y50.606 F10800
M204 S800
G1 F1200
G1 X108.189 Y50.566 E.00125
G1 X108.408 Y49.554 E.03247
G1 X108.87 Y48.591 E.03349
G1 X110.203 Y47.252 E.05924
G1 X110.956 Y46.875 E.0264
G1 X111.99 Y46.592 E.03361
G1 X119.723 Y46.587 E.24246
G1 X121.332 Y47.145 E.0534
G1 X121.758 Y46.917 E.01515
G1 X122.992 Y46.579 E.04012
G1 X130.635 Y46.588 E.23964
G1 X132.129 Y47.071 E.04923
G1 X132.955 Y47.648 E.03159
G1 X133.601 Y48.341 E.02971
G1 X134.077 Y49.141 E.02919
G1 X134.471 Y50.593 E.04717
G1 X134.464 Y59.884 E.29131
G1 X134.265 Y60.866 E.03142
G1 X133.88 Y61.744 E.03006
G1 X132.627 Y63.1 E.05789
G1 X131.668 Y63.619 E.03419
G1 X130.43 Y63.923 E.03997
G1 X123.101 Y63.923 E.2298
G1 X121.323 Y63.342 E.05865
G1 X120.858 Y63.581 E.01639
G1 X119.583 Y63.915 E.04133
G1 X112.188 Y63.924 E.23187
G1 X110.311 Y63.301 E.06201
G1 X109.566 Y62.716 E.0297
G1 X108.956 Y62.018 E.02907
G1 X108.5 Y61.161 E.03044
G1 X108.18 Y59.882 E.04134
G1 X108.189 Y50.666 E.28896
M204 S1000
G1 X108.566 Y50.666 F10800
M204 S800
G1 F1200
M73 Q0 S96
G1 X108.566 Y50.588 E.00245
G1 X108.772 Y49.658 E.02987
G1 X109.195 Y48.785 E.03042
G1 X110.446 Y47.542 E.05529
G1 X111.074 Y47.233 E.02194
G1 X112.016 Y46.969 E.03067
G1 X119.693 Y46.964 E.24071
G1 X120.97 Y47.367 E.04199
G1 X121.316 Y47.585 E.01282
G1 X121.882 Y47.274 E.02025
G1 X123.018 Y46.956 E.03699
G1 X130.547 Y46.956 E.23607
G1 X131.986 Y47.421 E.04742
G1 X132.693 Y47.92 E.02713
G1 X133.288 Y48.552 E.02722
G1 X133.74 Y49.312 E.02773
G1 X134.094 Y50.618 E.04243
G1 X134.09 Y59.829 E.2888
G1 X133.911 Y60.734 E.02893
G1 X133.547 Y61.563 E.02839
G1 X132.418 Y62.784 E.05214
G1 X131.552 Y63.26 E.03098
G1 X130.407 Y63.546 E.037
G1 X123.129 Y63.546 E.2282
G1 X121.672 Y63.111 E.04768
G1 X121.343 Y62.904 E.01219
G1 X120.739 Y63.222 E.0214
G1 X119.558 Y63.538 E.03833
G1 X112.218 Y63.546 E.23014
G1 X110.517 Y62.984 E.05617
G1 X109.838 Y62.454 E.02701
G1 X109.254 Y61.786 E.02782
G1 X108.86 Y61.045 E.02631
G1 X108.557 Y59.859 E.03838
G1 X108.566 Y50.726 E.28636
M204 S1000
G1 X108.943 Y50.727 F10800
M204 S800
G1 F1200
G1 X108.943 Y50.609 E.0037
G1 X109.134 Y49.764 E.02716
G1 X109.519 Y48.98 E.02739
G1 X110.642 Y47.866 E.0496
G1 X111.194 Y47.591 E.01934
G1 X112.093 Y47.339 E.02927
G1 X119.607 Y47.333 E.2356
G1 X120.83 Y47.718 E.0402
G1 X121.299 Y48.029 E.01764
G1 X122.008 Y47.63 E.02551
G1 X123.045 Y47.334 E.03381
G1 X130.518 Y47.333 E.23431
G1 X131.791 Y47.745 E.04195
G1 X132.459 Y48.217 E.02565
G1 X132.998 Y48.794 E.02476
G1 X133.383 Y49.438 E.02353
G1 X133.717 Y50.644 E.03924
G1 X133.713 Y59.811 E.28742
G1 X133.558 Y60.601 E.02524
G1 X133.215 Y61.382 E.02675
G1 X132.164 Y62.504 E.0482
G1 X131.436 Y62.9 E.02598
G1 X130.383 Y63.169 E.03408
G1 X123.157 Y63.169 E.22657
G1 X121.811 Y62.759 E.04412
G1 X121.332 Y62.441 E.01803
G1 X120.618 Y62.865 E.02604
G1 X119.532 Y63.161 E.03529
G1 X112.248 Y63.169 E.22838
G1 X110.722 Y62.666 E.05038
G1 X110.11 Y62.191 E.02429
G1 X109.552 Y61.554 E.02655
G1 X109.219 Y60.929 E.0222
G1 X108.934 Y59.835 E.03545
G1 X108.943 Y50.787 E.28369
M204 S1000
G1 X109.32 Y50.787 F10800
M204 S800
G1 F1200
G1 X109.32 Y50.631 E.00489
G1 X109.484 Y49.906 E.02331
G1 X109.81 Y49.222 E.02376
G1 X110.839 Y48.188 E.04574
G1 X111.313 Y47.949 E.01664
G1 X112.17 Y47.709 E.0279
G1 X119.577 Y47.71 E.23224
G1 X120.686 Y48.068 E.03654
G1 X121.361 Y48.531 E.02566
G1 X121.644 Y48.264 E.0122
G1 X122.135 Y47.985 E.01771
G1 X123.073 Y47.711 E.03064
G1 X130.488 Y47.71 E.23249
G1 X131.597 Y48.07 E.03656
G1 X132.225 Y48.513 E.0241
G1 X132.708 Y49.036 E.02232
G1 X133.028 Y49.565 E.01938
G1 X133.34 Y50.67 E.036
G1 X133.336 Y59.792 E.28601
G1 X133.192 Y60.505 E.02281
G1 X132.884 Y61.198 E.02378
G1 X131.912 Y62.222 E.04427
G1 X131.319 Y62.541 E.02111
G1 X130.358 Y62.792 E.03114
G1 X123.186 Y62.792 E.22487
G1 X121.953 Y62.409 E.04048
G1 X121.303 Y61.959 E.02479
G1 X120.964 Y62.251 E.01403
G1 X120.494 Y62.508 E.0168
G1 X119.505 Y62.784 E.03219
G1 X112.278 Y62.792 E.2266
G1 X110.926 Y62.347 E.04463
G1 X110.381 Y61.929 E.02154
G1 X109.85 Y61.322 E.02529
G1 X109.578 Y60.81 E.01818
G1 X109.311 Y59.81 E.03245
G1 X109.32 Y50.847 E.28103
M204 S1000
G1 X109.697 Y50.848 F10800
M204 S800
G1 F1200
G1 X109.697 Y50.653 E.00611
G1 X109.846 Y50.013 E.0206
G1 X110.135 Y49.415 E.02082
G1 X111.038 Y48.51 E.04008
G1 X111.437 Y48.306 E.01405
G1 X112.198 Y48.086 E.02484
G1 X119.546 Y48.087 E.23039
G1 X120.539 Y48.416 E.0328
G1 X121.022 Y48.756 E.01852
G1 X121.337 Y49.09 E.0144
G1 X121.854 Y48.578 E.02281
G1 X122.303 Y48.324 E.01617
G1 X123.101 Y48.088 E.02609
G1 X130.4 Y48.078 E.22886
G1 X131.453 Y48.419 E.0347
G1 X131.961 Y48.783 E.01959
G1 X132.418 Y49.277 E.0211
G1 X132.691 Y49.736 E.01674
G1 X132.962 Y50.697 E.03131
G1 X132.962 Y59.738 E.28347
G1 X132.839 Y60.372 E.02025
G1 X132.553 Y61.015 E.02207
G1 X131.705 Y61.906 E.03857
G1 X131.199 Y62.183 E.01809
G1 X130.333 Y62.415 E.02811
G1 X123.216 Y62.415 E.22315
G1 X122.097 Y62.059 E.03682
G1 X121.341 Y61.42 E.03104
G1 X120.764 Y61.931 E.02417
G1 X120.332 Y62.167 E.01543
G1 X119.479 Y62.407 E.02778
G1 X112.307 Y62.415 E.22487
G1 X111.129 Y62.028 E.03888
G1 X110.65 Y61.664 E.01886
G1 X110.171 Y61.122 E.02268
G1 X109.935 Y60.689 E.01546
G1 X109.689 Y59.784 E.02941
G1 X109.697 Y50.908 E.2783
M204 S1000
G1 X110.074 Y50.908 F10800
M204 S800
G1 F1200
G1 X110.074 Y50.675 E.00731
G1 X110.197 Y50.153 E.01682
G1 X110.428 Y49.655 E.01721
G1 X111.239 Y48.83 E.03627
G1 X112.277 Y48.456 E.03459
G1 X119.459 Y48.455 E.22519
G1 X120.346 Y48.741 E.02922
G1 X120.787 Y49.051 E.0169
G1 X121.321 Y49.637 E.02486
G1 X122.1 Y48.865 E.03439
G1 X122.466 Y48.664 E.01309
G1 X123.129 Y48.465 E.0217
G1 X130.371 Y48.455 E.22707
G1 X131.257 Y48.743 E.02921
G1 X131.725 Y49.078 E.01805
G1 X132.126 Y49.517 E.01864
G1 X132.336 Y49.866 E.01277
G1 X132.585 Y50.724 E.02801
G1 X132.585 Y59.719 E.28203
G1 X132.474 Y60.276 E.01781
G1 X132.224 Y60.829 E.01903
G1 X131.455 Y61.622 E.03463
G1 X131.078 Y61.826 E.01344
G1 X130.307 Y62.038 E.02507
G1 X123.246 Y62.038 E.22139
G1 X122.244 Y61.711 E.03305
G1 X121.857 Y61.426 E.01507
G1 X121.321 Y60.827 E.0252
G1 X120.531 Y61.633 E.03539
G1 X120.173 Y61.825 E.01274
G1 X119.452 Y62.03 E.0235
G1 X112.337 Y62.038 E.22309
G1 X111.33 Y61.707 E.03324
G1 X110.92 Y61.4 E.01606
G1 X110.467 Y60.888 E.02143
G1 X110.292 Y60.566 E.01149
G1 X110.066 Y59.758 E.02631
G1 X110.074 Y50.968 E.2756
M204 S1000
G1 X110.451 Y50.968 F10800
M204 S800
G1 F1200
G1 X110.452 Y50.699 E.00843
G1 X110.755 Y49.845 E.02841
G1 X111.442 Y49.149 E.03066
G1 X112.306 Y48.833 E.02885
G1 X119.375 Y48.823 E.22164
G1 X120.156 Y49.068 E.02566
G1 X120.523 Y49.322 E.01399
G1 X121.074 Y50 E.02739
G1 X121.282 Y50.629 E.02077
G1 X121.699 Y49.794 E.02926
G1 X122.309 Y49.18 E.02714
G1 X123.159 Y48.842 E.02868
G1 X130.341 Y48.832 E.22519
G1 X131.064 Y49.068 E.02385
G1 X131.461 Y49.347 E.01521
G1 X131.982 Y49.999 E.02617
G1 X132.208 Y50.752 E.02465
G1 X132.208 Y59.699 E.28053
G1 X132.109 Y60.177 E.01531
G1 X131.896 Y60.639 E.01595
G1 X131.209 Y61.335 E.03066
G1 X130.28 Y61.661 E.03087
G1 X123.276 Y61.661 E.21961
G1 X122.441 Y61.388 E.02754
G1 X122.124 Y61.159 E.01226
G1 X121.673 Y60.655 E.02121
G1 X121.455 Y60.119 E.01814
G1 X121.185 Y60.113 E.00847
G1 X121.001 Y60.62 E.01691
G1 X120.33 Y61.314 E.03027
G1 X119.424 Y61.653 E.03033
G1 X112.368 Y61.661 E.22124
G1 X111.482 Y61.361 E.02933
G1 X111.191 Y61.137 E.01151
G1 X110.766 Y60.656 E.02013
G1 X110.443 Y59.732 E.03069
G1 X110.451 Y51.028 E.27291
M204 S1000
G1 X110.828 Y51.029 F10800
M204 S800
G1 F1200
G1 X110.829 Y50.722 E.00963
G1 X111.082 Y50.036 E.02293
G1 X111.647 Y49.466 E.02516
G1 X112.336 Y49.21 E.02305
G1 X119.344 Y49.2 E.21973
G1 X120.01 Y49.417 E.02196
M73 P1 R94
G1 X120.635 Y49.997 E.02673
G1 X120.922 Y50.78 E.02615
G1 X120.922 Y59.704 E.27981
G1 X120.68 Y60.419 E.02367
G1 X120.094 Y61.018 E.02627
G1 X119.343 Y61.284 E.02498
G1 X112.399 Y61.284 E.21772
G1 X111.684 Y61.042 E.02367
M73 Q1 S96
G1 X111.085 Y60.456 E.02627
G1 X110.82 Y59.704 E.025
G1 X110.828 Y51.089 E.27012
M204 S1000
G1 X111.205 Y51.089 F10800
M204 S800
G1 F1200
G1 X111.206 Y50.746 E.01075
G1 X111.409 Y50.227 E.01747
G1 X111.856 Y49.781 E.0198
G1 X112.373 Y49.586 E.01732
G1 X112.966 Y49.577 E.0186
G1 X119.312 Y49.577 E.19897
G1 X119.858 Y49.763 E.01809
G1 X120.341 Y50.235 E.02117
G1 X120.545 Y50.809 E.0191
G1 X120.545 Y59.673 E.27792
G1 X120.359 Y60.22 E.01812
G1 X119.888 Y60.702 E.02113
G1 X119.313 Y60.907 E.01914
G1 X112.431 Y60.907 E.21578
G1 X111.884 Y60.721 E.01812
G1 X111.402 Y60.249 E.02115
G1 X111.197 Y59.675 E.01911
G1 X111.205 Y51.149 E.26733
M204 S1000
G1 X111.578 Y51.149 F10800
M204 S800
G1 F1200
G1 X111.578 Y50.81 E.01063
G1 X111.735 Y50.419 E.01321
G1 X112.071 Y50.091 E.01472
G1 X112.461 Y49.954 E.01296
G1 X112.965 Y49.954 E.0158
G1 X119.28 Y49.954 E.198
G1 X119.662 Y50.086 E.01267
G1 X120.031 Y50.449 E.01623
G1 X120.168 Y50.841 E.01302
G1 X120.168 Y59.641 E.27592
G1 X120.036 Y60.024 E.0127
G1 X119.673 Y60.392 E.01621
G1 X119.281 Y60.53 E.01303
G1 X112.462 Y60.53 E.2138
G1 X112.08 Y60.398 E.01267
G1 X111.712 Y60.035 E.01621
G1 X111.574 Y59.643 E.01303
G1 X111.578 Y51.209 E.26444
M204 S1000
G1 X111.951 Y51.209 F10800
M204 S800
G1 F1200
G1 X111.951 Y50.862 E.01088
G1 X112.059 Y50.615 E.00845
G1 X112.283 Y50.408 E.00956
G1 X112.496 Y50.331 E.0071
G1 X119.246 Y50.331 E.21164
G1 X119.498 Y50.429 E.00848
G1 X119.715 Y50.663 E.01001
G1 X119.791 Y50.876 E.00709
G1 X119.791 Y59.608 E.27379
G1 X119.694 Y59.859 E.00844
G1 X119.459 Y60.076 E.01003
G1 X119.246 Y60.153 E.0071
G1 X112.496 Y60.153 E.21164
G1 X112.245 Y60.055 E.00845
G1 X112.027 Y59.821 E.01003
G1 X111.951 Y59.608 E.00709
G1 X111.951 Y51.269 E.26146
M204 S1000
G1 X112.329 Y51.268 F10800
M204 S800
G1 F1200
G1 X112.328 Y50.918 E.01097
G1 X112.538 Y50.708 E.00931
G1 X112.965 Y50.708 E.01339
G1 X119.205 Y50.709 E.19565
G1 X119.385 Y50.849 E.00715
G1 X119.414 Y59.566 E.27332
G1 X119.274 Y59.747 E.00717
G1 X112.538 Y59.776 E.2112
G1 X112.357 Y59.635 E.00719
G1 X112.33 Y51.328 E.26046
M204 S1000
;WIPE_START
G1 F8640
G1 X112.329 Y51.268 E-.01386
G1 X112.328 Y50.918 E-.08082
G1 X112.538 Y50.708 E-.06857
G1 X112.965 Y50.708 E-.0986
G1 X116.162 Y50.708 E-.73815
;WIPE_END
G1 Z.4 F720
G1 X121.737 Y51.337 F10800
G1 Z.2 F720
G1 E1 F2100
M204 S800
G1 F1200
G1 X121.737 Y50.722 E.01928
G1 X121.991 Y50.036 E.02294
G1 X122.556 Y49.466 E.02516
G1 X123.245 Y49.21 E.02305
G1 X130.253 Y49.2 E.21973
G1 X130.918 Y49.417 E.02193
G1 X131.544 Y49.997 E.02676
G1 X131.831 Y50.78 E.02615
G1 X131.831 Y59.678 E.27899
G1 X131.569 Y60.448 E.0255
G1 X131.004 Y61.018 E.02516
G1 X130.252 Y61.284 E.02501
G1 X123.308 Y61.284 E.21772
G1 X122.593 Y61.042 E.02367
G1 X121.994 Y60.456 E.02627
G1 X121.729 Y59.704 E.025
G1 X121.737 Y51.397 E.26046
M204 S1000
G1 X122.114 Y51.397 F10800
M204 S800
G1 F1200
